svg/icon/cob.svg

<svg height="32" viewBox="0 0 32 32" width="32" xmlns="http://www.w3.org/2000/svg" xmlns:xlink="http://www.w3.org/1999/xlink"><defs><linearGradient id="a" x1="50%" x2="50%" y1="0%" y2="100%"><stop offset="0" stop-color="#fff" stop-opacity=".5"/><stop offset="1" stop-opacity=".5"/></linearGradient><circle id="b" cx="16" cy="15" r="15"/><filter id="c" height="111.7%" width="111.7%" x="-5.8%" y="-4.2%"><feOffset dy=".5" in="SourceAlpha" result="shadowOffsetOuter1"/><feGaussianBlur in="shadowOffsetOuter1" result="shadowBlurOuter1" stdDeviation=".5"/><feComposite in="shadowBlurOuter1" in2="SourceAlpha" operator="out" result="shadowBlurOuter1"/><feColorMatrix in="shadowBlurOuter1" values="0 0 0 0 0   0 0 0 0 0   0 0 0 0 0  0 0 0 0.199473505 0"/></filter><path id="d" d="m15.999888 23.9991995.000112.0008005h-4.5363322l2.2723184-3.9570709.000804.0008005-.000458-.0008005h4.5280277l2.2719723 3.9570709h-4.5363322l.000173-.0003024zm-2.2632686-14.04297932-.0006332.00050202-2.2723184-3.9567222h4.5363322v.00060473l.000173-.00030237-.000173-.00030236h4.5363322l-2.272145 3.95642039-4.527855.00030181zm9.9989414 9.53850592.0000793.0007408h-.0011919l.0011919.0003487-2.2723183 3.9567222-2.2640138-3.9567222.0011918-.0003487h-.0011918l2.2640138-3.9570709.00061.0004598-.000264-.0004598h4.5363322l-2.2640138 3.9570709zm-15.47171965-8.9986087-.00017333-.0003018 2.27231838-3.95707093 2.2640138 3.95707093-2.2638411 3.9564204.0001733.0003018h-4.5363322zm4.53533685 8.9996982h.000822l-2.2640138 3.9567222-2.27231838-3.9567222h.00082199l-.00082199-.0003487-2.26366782-3.9570709h4.5363322l2.2636678 3.9570709zm10.9364622-8.9993977.000346-.0006023 2.2640138 3.9567222h-4.5363322l.0001913-.0003331-.0005373.0003331-2.2640138-3.9567222 2.2640138-3.95707093 2.2723183 3.95707093z"/><filter id="e" height="119.4%" width="117.5%" x="-8.8%" y="-6.9%"><feOffset dy=".5" in="SourceAlpha" result="shadowOffsetOuter1"/><feGaussianBlur in="shadowOffsetOuter1" result="shadowBlurOuter1" stdDeviation=".5"/><feColorMatrix in="shadowBlurOuter1" values="0 0 0 0 0   0 0 0 0 0   0 0 0 0 0  0 0 0 0.204257246 0"/></filter></defs><g fill="none" fill-rule="evenodd"><use fill="#000" filter="url(#c)" xlink:href="#b"/><use fill="#13bf99" xlink:href="#b"/><use fill="url(#a)" xlink:href="#b"/><circle cx="16" cy="15" r="14.5" stroke="#000" stroke-opacity=".097"/><g fill-rule="nonzero"><use fill="#000" filter="url(#e)" xlink:href="#d"/><use fill="#fff" fill-rule="evenodd" xlink:href="#d"/></g></g></svg>

<svg xmlns="http://www.w3.org/2000/svg" xmlns:xlink="http://www.w3.org/1999/xlink" width="32" height="32" viewBox="0 0 32 32">
  <defs>
    <linearGradient id="cob-c" x1="50%" x2="50%" y1="0%" y2="100%">
      <stop offset="0%" stop-color="#FFF" stop-opacity=".5"/>
      <stop offset="100%" stop-opacity=".5"/>
    </linearGradient>
    <circle id="cob-b" cx="16" cy="15" r="15"/>
    <filter id="cob-a" width="111.7%" height="111.7%" x="-5.8%" y="-4.2%" filterUnits="objectBoundingBox">
      <feOffset dy=".5" in="SourceAlpha" result="shadowOffsetOuter1"/>
      <feGaussianBlur in="shadowOffsetOuter1" result="shadowBlurOuter1" stdDeviation=".5"/>
      <feComposite in="shadowBlurOuter1" in2="SourceAlpha" operator="out" result="shadowBlurOuter1"/>
      <feColorMatrix in="shadowBlurOuter1" values="0 0 0 0 0   0 0 0 0 0   0 0 0 0 0  0 0 0 0.199473505 0"/>
    </filter>
    <path id="cob-e" d="M15.999888,23.9991995 L16,24 L11.4636678,24 L13.7359862,20.0429291 L13.7367902,20.0437296 L13.7363322,20.0429291 L18.2643599,20.0429291 L20.5363322,24 L16,24 L16.000173,23.9996976 L15.999888,23.9991995 Z M13.7366194,9.95622018 L13.7359862,9.9567222 L11.4636678,6 L16,6 L16,6.00060473 L16.000173,6.00030236 L16,6 L20.5363322,6 L18.2641872,9.95642039 L13.7363322,9.9567222 L13.7366194,9.95622018 Z M23.7355608,19.4947261 L23.7356401,19.4954669 L23.7344482,19.4954669 L23.7356401,19.4958156 L21.4633218,23.4525378 L19.199308,19.4958156 L19.2004998,19.4954669 L19.199308,19.4954669 L21.4633218,15.538396 L21.4639318,15.5388558 L21.4636678,15.538396 L26,15.538396 L23.7359862,19.4954669 L23.7355608,19.4947261 Z M8.26384115,10.4961174 L8.26366782,10.4958156 L10.5359862,6.53874467 L12.8,10.4958156 L10.5361589,14.452236 L10.5363322,14.4525378 L6,14.4525378 L8.26384115,10.4961174 Z M12.799178,19.4958156 L12.8,19.4958156 L10.5359862,23.4525378 L8.26366782,19.4958156 L8.26448981,19.4958156 L8.26366782,19.4954669 L6,15.538396 L10.5363322,15.538396 L12.8,19.4954669 L12.799178,19.4958156 Z M23.7356402,10.4964179 L23.7359862,10.4958156 L26,14.4525378 L21.4636678,14.4525378 L21.4638591,14.4522047 L21.4633218,14.4525378 L19.199308,10.4958156 L21.4633218,6.53874467 L23.7356401,10.4958156 L23.7356402,10.4964179 Z"/>
    <filter id="cob-d" width="117.5%" height="119.4%" x="-8.8%" y="-6.9%" filterUnits="objectBoundingBox">
      <feOffset dy=".5" in="SourceAlpha" result="shadowOffsetOuter1"/>
      <feGaussianBlur in="shadowOffsetOuter1" result="shadowBlurOuter1" stdDeviation=".5"/>
      <feColorMatrix in="shadowBlurOuter1" values="0 0 0 0 0   0 0 0 0 0   0 0 0 0 0  0 0 0 0.204257246 0"/>
    </filter>
  </defs>
  <g fill="none" fill-rule="evenodd">
    <use fill="#000" filter="url(#cob-a)" xlink:href="#cob-b"/>
    <use fill="#13BF99" xlink:href="#cob-b"/>
    <use fill="url(#cob-c)" style="mix-blend-mode:soft-light" xlink:href="#cob-b"/>
    <circle cx="16" cy="15" r="14.5" stroke="#000" stroke-opacity=".097"/>
    <g fill-rule="nonzero">
      <use fill="#000" filter="url(#cob-d)" xlink:href="#cob-e"/>
      <use fill="#FFF" fill-rule="evenodd" xlink:href="#cob-e"/>
    </g>
  </g>
</svg>
